X:75
T: Winter in Vermont
C: Eamon Flynn
Z: B.Black
R: jig
M: 6/8
L: 1/8
K: G
F | DGG FGA | GAB cdc | Bdg gfd | cAG FGA |
DGG Fdc | BGB cBc | dgf dcA | DGF G2 :|
B | d2 g gag | dec ABc | dgg gfg | cag fga |
d2 g gag | fdc ABc | B/2c/2dB cAF | DGF G2 :|
